X:1
T:Buxtehude - Aria:  La Capricciosa in G Minor.
%%score { ( 1 2 ) | ( 3 4 ) }
L:1/8
Q:1/4=80
M:4/4
K:G
V:1 treble nm="Harpsichord" snm="Hch."
V:2 treble 
V:3 bass 
V:4 bass 
V:1
"^Partita 27" dPBcPd e3 Md | c3 PA BPFGPA | BPB,CPD EPFGPA | B2 MA2 G4 :: BPGAPB c4 | %5
 z MBAMB GMFEM=c | BMAGM=F EP^FGMA | FMEDM=C B,A, G,2 :| %8
V:2
 x4 GPEFG- | GMG F2 G z z2 | x8 | G2 MF2 D4 :: x4 z PEAMG | F2 EF E^DEF | GFED- DCDE | %7
 z B,A,A, x4 :| %8
V:3
 B,G,A,B, C3 B, | A,2 D2 G,D,E,F, | G,G,,A,,B,, C,A,,B,,C, | z MD z MC B,4 :: G,E,F,G, A,G,F,E, | %5
 ^D,B,,^C,D, E,F,G,A, | B,CDB, CA,B,C | z G,F,F, [D,G,][=C,F,] [D,G,]2 :| %8
V:4
 x8 | x8 | x8 | D,2 D,,2 z PG,,G,G,, :: x8 | x8 | x8 | D^C,D,D,, G,,2 [G,,B,,]2 :| %8

